.local/share/icons/Gruvbox-Plus-Dark/actions/16/code-context.svg

<svg xmlns="http://www.w3.org/2000/svg" width="16" height="16" version="1.1" viewBox="0 0 16 16">
 <defs>
  <style id="current-color-scheme" type="text/css">
   .ColorScheme-Text { color:#ebdbb2; } .ColorScheme-Highlight { color:#458588; }
  </style>
 </defs>
 <path style="fill:currentColor" class="ColorScheme-Text" d="m 3,1.0097656 c -1.108,0 -2,0.892 -2,2 V 13.009766 c 0,1.108 0.892,2 2,2 h 10 c 1.108,0 2,-0.892 2,-2 V 3.0097656 c 0,-1.1082 -0.892,-2 -2,-2 z M 6.0816406,3 H 6.4 V 3.7558594 H 6.0464844 c -0.472,0 -0.7783219,0.079175 -0.9199219,0.234375 -0.145,0.1517 -0.21875,0.4776156 -0.21875,0.9785156 v 1.3125 c 0,0.5538 -0.074763,0.9546781 -0.2265625,1.2050781 -0.1517,0.2505 -0.4148625,0.4197125 -0.7890625,0.5078125 0.3742,0.0953 0.6373625,0.2690313 0.7890625,0.5195313 0.1518,0.2504 0.2265625,0.6509718 0.2265625,1.2011719 v 1.3125002 c 0,0.505 0.07375,0.830422 0.21875,0.982422 0.1416,0.151 0.4479219,0.228515 0.9199219,0.228515 H 6.4 V 13 H 6.0816406 c -0.8394,0 -1.3998875,-0.129625 -1.6796875,-0.390625 -0.2832,-0.261 -0.4238281,-0.7835 -0.4238281,-1.5625 V 9.7832031 c 0,-0.5326 -0.091438,-0.9008687 -0.2734375,-1.1054687 -0.1821,-0.2046 -1.4689344,-0.3066406 -0.9902344,-0.3066406 H 2.4 V 7.6132812 h 0.3144531 c 0.4787,0 0.8081344,-0.099681 0.9902344,-0.3007812 0.182,-0.2046 0.2734375,-0.5701031 0.2734375,-1.0957031 V 4.9472656 c 0,-0.7796 0.1406281,-1.2991406 0.4238281,-1.5566406 C 4.6817531,3.129625 5.2422406,3 6.0816406,3 Z M 9.6,3 h 0.3183594 c 0.8395996,0 1.3996876,0.129625 1.6796876,0.390625 0.283,0.2575 0.423828,0.7770406 0.423828,1.5566406 v 1.2695313 c 0,0.5256 0.09144,0.8911031 0.273437,1.0957031 0.182001,0.2011 1.469235,0.3007812 0.990235,0.3007812 H 13.6 v 0.7578126 h -0.314453 c -0.479,0 -0.808234,0.1020406 -0.990235,0.3066406 -0.182,0.2046 -0.273437,0.5728687 -0.273437,1.1054687 v 1.2636719 c 0,0.779 -0.140828,1.3015 -0.423828,1.5625 C 11.318047,12.870375 10.757959,13 9.9183594,13 H 9.6 v -0.761719 h 0.3535156 c 0.4720004,0 0.7789214,-0.07752 0.9199224,-0.228515 0.144999,-0.152 0.218749,-0.477422 0.21875,-0.982422 V 9.7148438 c 0,-0.5502001 0.07456,-0.9507719 0.226562,-1.2011719 0.151,-0.2505 0.415062,-0.4242313 0.789062,-0.5195313 -0.374,-0.0881 -0.638062,-0.2573125 -0.789062,-0.5078125 -0.152,-0.2504 -0.226562,-0.6512781 -0.226562,-1.2050781 v -1.3125 c 0,-0.5009 -0.07375,-0.8268156 -0.21875,-0.9785156 -0.141001,-0.1552 -0.447922,-0.234375 -0.9199224,-0.234375 H 9.6 Z"/>
</svg>

<svg width="16" height="16" version="1.1" xmlns="http://www.w3.org/2000/svg">
  <defs>
    <style id="current-color-scheme" type="text/css">.ColorScheme-Text { color:#ebdbb2; } .ColorScheme-Highlight { color:#458588; }</style>
  </defs>
  <path class="ColorScheme-Text" d="m3 1.01c-1.108 0-2 0.892-2 2v10c0 1.108 0.892 2 2 2h10c1.108 0 2-0.892 2-2v-10c0-1.108-0.892-2-2-2zm3.082 1.99h0.3184v0.7559h-0.3535c-0.472 0-0.7783 0.07918-0.9199 0.2344-0.145 0.1517-0.2188 0.4776-0.2188 0.9785v1.312c0 0.5538-0.07476 0.9547-0.2266 1.205-0.1517 0.2505-0.4149 0.4197-0.7891 0.5078 0.3742 0.0953 0.6374 0.269 0.7891 0.5195 0.1518 0.2504 0.2266 0.651 0.2266 1.201v1.313c0 0.505 0.07375 0.8304 0.2188 0.9824 0.1416 0.151 0.4479 0.2285 0.9199 0.2285h0.3535v0.7617h-0.3184c-0.8394 0-1.4-0.1296-1.68-0.3906-0.2832-0.261-0.4238-0.7835-0.4238-1.562v-1.264c0-0.5326-0.09144-0.9009-0.2734-1.105-0.1821-0.2046-1.469-0.3066-0.9902-0.3066h-0.3145v-0.7578h0.3145c0.4787 0 0.8081-0.09968 0.9902-0.3008 0.182-0.2046 0.2734-0.5701 0.2734-1.096v-1.27c0-0.7796 0.1406-1.299 0.4238-1.557 0.2798-0.261 0.8403-0.3906 1.68-0.3906zm3.518 0h0.3184c0.8396 0 1.4 0.1296 1.68 0.3906 0.283 0.2575 0.4238 0.777 0.4238 1.557v1.27c0 0.5256 0.09144 0.8911 0.2734 1.096 0.182 0.2011 1.469 0.3008 0.9902 0.3008h0.3145v0.7578h-0.3145c-0.479 0-0.8082 0.102-0.9902 0.3066s-0.2734 0.5729-0.2734 1.105v1.264c0 0.779-0.1408 1.302-0.4238 1.562-0.28 0.261-0.8401 0.3906-1.68 0.3906h-0.3184v-0.7617h0.3535c0.472 0 0.7789-0.07752 0.9199-0.2285 0.145-0.152 0.2187-0.4774 0.2188-0.9824v-1.313c0-0.5502 0.07456-0.9508 0.2266-1.201 0.151-0.2505 0.4151-0.4242 0.7891-0.5195-0.374-0.0881-0.6381-0.2573-0.7891-0.5078-0.152-0.2504-0.2266-0.6513-0.2266-1.205v-1.312c0-0.5009-0.07375-0.8268-0.2188-0.9785-0.141-0.1552-0.4479-0.2344-0.9199-0.2344h-0.3535z" fill="currentColor"/>
</svg>
